hosted/assets/icon/widgets/dark-mode/compass.svg

<svg width="50" height="50" viewBox="0 0 50 50" fill="none" xmlns="http://www.w3.org/2000/svg">
<path d="M27.5 27.5L24 22L23 22.5L14 36.5L27.5 27.5Z" fill="#E75F63"/>
<path d="M24.9844 1.98634C24.9274 1.98734 24.8705 1.99322 24.8145 2.00392C12.2749 2.10388 2.10915 12.2664 2.00395 24.8047C1.9798 24.9298 1.9798 25.0585 2.00395 25.1836C2.10286 37.7241 12.2657 47.8909 24.8047 47.9961C24.9299 48.0202 25.0585 48.0202 25.1836 47.9961C37.7241 47.8972 47.8909 37.7343 47.9961 25.1953C48.0203 25.0702 48.0203 24.9416 47.9961 24.8164C47.8972 12.272 37.728 2.10286 25.1836 2.00392C25.118 1.99142 25.0512 1.98553 24.9844 1.98634ZM24 4.0254V5.00001C23.9982 5.13252 24.0226 5.26409 24.0721 5.38706C24.1215 5.51002 24.1948 5.62194 24.2879 5.71631C24.3809 5.81068 24.4918 5.88562 24.6141 5.93677C24.7363 5.98792 24.8675 6.01426 25 6.01426C25.1326 6.01426 25.2638 5.98792 25.386 5.93677C25.5083 5.88562 25.6192 5.81068 25.7122 5.71631C25.8052 5.62194 25.8786 5.51002 25.928 5.38706C25.9774 5.26409 26.0019 5.13252 26 5.00001V4.0254C36.8128 4.53083 45.4692 13.1872 45.9747 24H45C44.8675 23.9981 44.736 24.0226 44.613 24.072C44.49 24.1214 44.3781 24.1948 44.2837 24.2879C44.1894 24.3809 44.1144 24.4918 44.0633 24.614C44.0121 24.7363 43.9858 24.8675 43.9858 25C43.9858 25.1325 44.0121 25.2637 44.0633 25.386C44.1144 25.5083 44.1894 25.6191 44.2837 25.7122C44.3781 25.8052 44.49 25.8786 44.613 25.928C44.736 25.9774 44.8675 26.0019 45 26H45.9747C45.4692 36.8128 36.8128 45.4692 26 45.9746V45C26.0019 44.8662 25.9768 44.7334 25.9264 44.6095C25.876 44.4855 25.8012 44.373 25.7065 44.2785C25.6118 44.1839 25.4991 44.1094 25.3751 44.0592C25.251 44.009 25.1182 43.9842 24.9844 43.9863C24.7195 43.9905 24.4671 44.0995 24.2826 44.2896C24.098 44.4796 23.9964 44.7351 24 45V45.9746C13.1873 45.4692 4.53086 36.8128 4.02543 26H5.00004C5.13255 26.0019 5.26412 25.9774 5.38708 25.928C5.51005 25.8786 5.62197 25.8052 5.71634 25.7122C5.81071 25.6191 5.88565 25.5083 5.9368 25.386C5.98795 25.2637 6.01428 25.1325 6.01428 25C6.01428 24.8675 5.98795 24.7363 5.9368 24.614C5.88565 24.4918 5.81071 24.3809 5.71634 24.2879C5.62197 24.1948 5.51005 24.1214 5.38708 24.072C5.26412 24.0226 5.13255 23.9981 5.00004 24H4.02543C4.53086 13.1872 13.1873 4.53083 24 4.0254ZM36.9649 12C36.7771 12.0068 36.595 12.0664 36.4395 12.1719L22.1172 21.8477C22.0109 21.9194 21.9194 22.0109 21.8477 22.1172L12.1719 36.4395C12.0418 36.6319 11.9827 36.8637 12.0049 37.0949C12.027 37.3262 12.129 37.5425 12.2932 37.7068C12.4575 37.8711 12.6738 37.9731 12.9051 37.9952C13.1364 38.0173 13.3681 37.9583 13.5606 37.8281L27.8848 28.1524C27.9911 28.0806 28.0826 27.9891 28.1543 27.8828L37.8282 13.5606C37.9318 13.4077 37.991 13.2291 37.9994 13.0446C38.0077 12.8602 37.9648 12.677 37.8754 12.5154C37.786 12.3538 37.6536 12.2201 37.4929 12.1291C37.3322 12.0382 37.1494 11.9935 36.9649 12ZM23.3965 23.3965L26.6036 26.6035L16.7188 33.2813L23.3965 23.3965Z" fill="white"/>
</svg>

<svg width="50" height="50" fill="none" xmlns="http://www.w3.org/2000/svg"><path d="M27.5 27.5L24 22l-1 .5-9 14 13.5-9z" fill="#E75F63"/><path d="M24.984 1.986a1 1 0 00-.17.018c-12.54.1-22.705 10.262-22.81 22.8a1 1 0 000 .38c.099 12.54 10.262 22.707 22.8 22.812.126.024.255.024.38 0 12.54-.099 22.707-10.262 22.812-22.8a.998.998 0 000-.38C47.897 12.272 37.728 2.103 25.184 2.004a1 1 0 00-.2-.018zM24 4.026V5a1 1 0 102 0v-.975C36.813 4.531 45.47 13.187 45.975 24H45a1 1 0 100 2h.975C45.469 36.813 36.813 45.47 26 45.975V45a.999.999 0 00-1.717-.71A1 1 0 0024 45v.975C13.187 45.469 4.53 36.813 4.025 26H5a1 1 0 100-2h-.975C4.531 13.187 13.187 4.53 24 4.025zM36.965 12a1 1 0 00-.526.172l-14.322 9.676a.999.999 0 00-.27.27L12.173 36.44a1 1 0 001.389 1.388l14.324-9.676a1 1 0 00.27-.27l9.673-14.321A1.001 1.001 0 0036.965 12zM23.396 23.396l3.208 3.207-9.885 6.678 6.677-9.884z" fill="#fff"/></svg>
